X: 24
T:The Stool of Repentance
M:6/8
L:1/8
S:AABB
R:Jig
K:A
ve/2f/2g/2||:"A"a2 e c2 e|"A"{g}a gf edc|aff f2 e|"Bm"fag "E"f2 e|!
"A"{g}a2 e c2 e|"A"{g}agf edc|"D"d2 e f2 e|"D"f<ac "A"B2 A:||!
"A"cAA eAA|cAA edc|"E"dBB fBB|dBB fed|!
"A"cAA eAA|cAA edc|"Bm"d2 e f2 e|"D"f<ac "A"B2 vA "(fin)"[A2F2]:||
